symbols/web/woman/materialsymbolssharp/woman_wght700grad200_20px.svg

<svg xmlns="http://www.w3.org/2000/svg" height="20" width="20"><path d="M8.104 18.688v-4.792h-2.75l3.271-8.417h2.729l3.292 8.417h-2.75v4.792ZM10 4.792q-.854 0-1.458-.594T7.938 2.75q0-.854.604-1.458T9.979.688q.875 0 1.479.604.604.604.604 1.437 0 .854-.593 1.459-.594.604-1.469.604Z"/></svg>

<svg xmlns="http://www.w3.org/2000/svg" height="20" width="20"><path d="M8.104 18.688V13.896H5.354L8.625 5.479H11.354L14.646 13.896H11.896V18.688ZM10 4.792Q9.146 4.792 8.542 4.198Q7.938 3.604 7.938 2.75Q7.938 1.896 8.542 1.292Q9.146 0.688 9.979 0.688Q10.854 0.688 11.458 1.292Q12.062 1.896 12.062 2.729Q12.062 3.583 11.469 4.188Q10.875 4.792 10 4.792Z"/></svg>
